Newaita-dark/apps/64/preferences-desktop-theme.svg

<svg height="64pt" viewBox="0 0 64 64" width="64pt" xmlns="http://www.w3.org/2000/svg" xmlns:xlink="http://www.w3.org/1999/xlink"><linearGradient id="a" gradientUnits="userSpaceOnUse" x1="31.75304" x2="31.75304" y1="56.067868" y2="58.71395600006"><stop offset="0" stop-opacity=".27451"/><stop offset="1" stop-opacity="0"/></linearGradient><linearGradient id="b"><stop offset="0" stop-opacity=".313726"/><stop offset=".222222" stop-opacity=".27451"/><stop offset="1" stop-opacity="0"/></linearGradient><radialGradient id="c" cx="450.908936" cy="189.579361" gradientTransform="matrix(.00000035 -.156265 -.281277 -.0000002 106.907382 127.190661)" gradientUnits="userSpaceOnUse" r="21.166656" xlink:href="#b"/><radialGradient id="d" cx="450.908936" cy="189.579361" gradientTransform="matrix(-.00000035 .156265 .281277 .0000002 -43.401323 -15.054962)" gradientUnits="userSpaceOnUse" r="21.166656" xlink:href="#b"/><radialGradient id="e" cx="450.908936" cy="189.579361" gradientTransform="matrix(-.00000035 -.156265 .281277 -.0000002 -43.401323 127.190661)" gradientUnits="userSpaceOnUse" r="21.166656" xlink:href="#b"/><radialGradient id="f" cx="450.908936" cy="189.579361" gradientTransform="matrix(.00000035 .156265 -.281277 .0000002 106.907378 -15.054963)" gradientUnits="userSpaceOnUse" r="21.166656" xlink:href="#b"/><linearGradient id="g"><stop offset="0" stop-color="#424242"/><stop offset="1" stop-color="#616161"/></linearGradient><linearGradient id="h" gradientTransform="matrix(.150699 0 0 .434824 -11.708026 67.282696)" gradientUnits="userSpaceOnUse" x1="306.916656" x2="305.954559" xlink:href="#g" y1="-25.791676" y2="-135.329163"/><linearGradient id="i" gradientTransform="matrix(.150699 0 0 .434824 -11.708026 67.282692)" gradientUnits="userSpaceOnUse" x1="306.916656" x2="305.954559" y1="-25.791676" y2="-135.329163"><stop offset="0" stop-color="#bdbdbd"/><stop offset="1" stop-color="#e0e0e0"/></linearGradient><linearGradient id="j" gradientTransform="matrix(.150699 0 0 .434824 -11.708026 67.282692)" gradientUnits="userSpaceOnUse" x1="306.916656" x2="305.954559" xlink:href="#g" y1="-25.791676" y2="-135.329163"/><linearGradient id="k" gradientUnits="userSpaceOnUse" x1="333.37491775" x2="333.37491775" y1="-121.04159691667" y2="-89.29164325"><stop offset="0" stop-color="#66bb6a"/><stop offset="1" stop-color="#81c784"/></linearGradient><linearGradient id="l" gradientUnits="userSpaceOnUse" x1="386.29151025" x2="386.29151025" y1="-121.04167408333" y2="-89.29163575"><stop offset="0" stop-color="#ffd54f"/><stop offset="1" stop-color="#ffe082"/></linearGradient><linearGradient id="m" gradientUnits="userSpaceOnUse" x1="439.208298" x2="439.208298" y1="-121.041682" y2="-89.291686"><stop offset="0" stop-color="#e57373"/><stop offset="1" stop-color="#ef9a9a"/></linearGradient><path d="m9.261719 56.066406h44.984375v2.648438h-44.984375zm0 0" fill="url(#a)"/><path d="m54.246094 56.066406h5.289062v-2.644531h-5.289062zm0 0" fill="url(#c)"/><path d="m9.261719 56.066406h-5.292969v2.648438h5.292969zm0 0" fill="url(#d)"/><path d="m9.261719 56.066406h-5.292969v-2.644531h5.292969zm0 0" fill="url(#e)"/><path d="m54.246094 56.066406h5.289062v2.648438h-5.289062zm0 0" fill="url(#f)"/><path d="m6.613281 8.4375h50.277344c1.460937 0 2.644531 1.183594 2.644531 2.648438v42.335937c0 1.460937-1.183594 2.644531-2.644531 2.644531h-50.277344c-1.460937 0-2.644531-1.183594-2.644531-2.644531v-42.335937c0-1.464844 1.183594-2.648438 2.644531-2.648438zm0 0" fill="url(#h)"/><path d="m31.753906 8.4375v47.628906h25.136719c1.464844 0 2.644531-1.179687 2.644531-2.644531v-42.335937c0-1.46875-1.179687-2.648438-2.644531-2.648438zm0 0" fill="url(#i)"/><path d="m3.96875 19.023438h55.566406v1.320312h-55.566406zm0 0" fill="#0a0d0e" fill-opacity=".235294"/><path d="m6.613281 8.4375c-1.464843 0-2.644531 1.179688-2.644531 2.648438v7.9375h55.566406v-7.9375c0-1.46875-1.179687-2.648438-2.644531-2.648438zm0 0" fill="url(#i)"/><path d="m6.613281 56.09375c-1.464843 0-2.644531-1.179688-2.644531-2.644531v-.6875c0 1.464843 1.179688 2.644531 2.644531 2.644531h50.277344c1.464844 0 2.644531-1.179688 2.644531-2.644531v.6875c0 1.464843-1.179687 2.644531-2.644531 2.644531zm0 0" fill-opacity=".235294"/><path d="m31.753906 8.4375v10.585938h27.78125v-7.9375c0-1.46875-1.179687-2.648438-2.644531-2.648438zm0 0" fill="url(#j)"/><path d="m6.613281 8.589844c-1.464843 0-2.644531 1.179687-2.644531 2.648437v.6875c0-1.46875 1.179688-2.648437 2.644531-2.648437h50.277344c1.464844 0 2.644531 1.179687 2.644531 2.648437v-.6875c0-1.46875-1.179687-2.648437-2.644531-2.648437zm0 0" fill="#fff" fill-opacity=".392157"/><path d="m6.613281 8.25c-1.566406 0-2.832031 1.269531-2.832031 2.835938v42.335937c0 1.566406 1.265625 2.832031 2.832031 2.832031h50.277344c1.566406 0 2.832031-1.265625 2.832031-2.832031v-42.335937c0-1.566407-1.265625-2.835938-2.832031-2.835938zm0 .375h50.277344c1.367187 0 2.457031 1.09375 2.457031 2.460938v42.335937c0 1.367187-1.089844 2.457031-2.457031 2.457031h-50.277344c-1.363281 0-2.457031-1.089844-2.457031-2.457031v-42.335937c0-1.367188 1.09375-2.460938 2.457031-2.460938zm0 0" fill="#212121"/><g stroke-width="3"><path d="m333.374414-121.040223c8.780412 0 15.873484 7.093073 15.873484 15.873484 0 8.780412-7.093072 15.873485-15.873484 15.873485-8.780411 0-15.873484-7.093073-15.873484-15.873485 0-8.780411 7.093073-15.873484 15.873484-15.873484zm0 0" fill="url(#k)" stroke="#212121" stroke-linecap="round" transform="matrix(.125012 0 0 .125012 0 26.877566)"/><path d="m386.30686-121.040223c8.749164 0 15.873484 7.093073 15.873484 15.873484 0 8.780412-7.12432 15.873485-15.873484 15.873485-8.780412 0-15.904732-7.093073-15.904732-15.873485 0-8.780411 7.12432-15.873484 15.904732-15.873484zm0 0" fill="url(#l)" stroke="#212121" stroke-linecap="round" transform="matrix(.125012 0 0 .125012 0 26.877566)"/><path d="m439.208058-121.040223c8.780411 0 15.873484 7.093073 15.873484 15.873484 0 8.780412-7.093073 15.873485-15.873484 15.873485-8.780412 0-15.873484-7.093073-15.873484-15.873485 0-8.780411 7.093072-15.873484 15.873484-15.873484zm0 0" fill="url(#m)" stroke="#212121" stroke-linecap="round" transform="matrix(.125012 0 0 .125012 0 26.877566)"/></g><path d="m6.613281 8.589844c-1.464843 0-2.644531 1.179687-2.644531 2.648437v.6875c0-1.46875 1.179688-2.648437 2.644531-2.648437h25.140625v-.6875zm0 0" fill="#fff"/><path d="m254.006994 233.488421v-380.994866" fill="none" stroke="#212121" stroke-width="3" transform="matrix(.125012 0 0 .125012 0 26.877566)"/><path d="m31.746968-62.827032h444.488804" fill="none" stroke="#212121" stroke-width="3" transform="matrix(.125012 0 0 .125012 0 26.877566)"/></svg>

<?xml version="1.0" encoding="UTF-8"?>
<svg xmlns="http://www.w3.org/2000/svg" xmlns:xlink="http://www.w3.org/1999/xlink" width="64pt" height="64pt" viewBox="0 0 64 64" version="1.1">
<defs>
<linearGradient id="linear0" gradientUnits="userSpaceOnUse" x1="254" y1="233.5" x2="254" y2="254.666672" gradientTransform="matrix(0.125012,0,0,0.125012,-0.00000763012,26.877566)">
<stop offset="0" style="stop-color:rgb(0%,0%,0%);stop-opacity:0.27451;"/>
<stop offset="1" style="stop-color:rgb(0%,0%,0%);stop-opacity:0;"/>
</linearGradient>
<radialGradient id="radial0" gradientUnits="userSpaceOnUse" cx="450.908936" cy="189.579361" fx="450.908936" fy="189.579361" r="21.166656" gradientTransform="matrix(0.000000348341,-0.156265,-0.281277,-0.000000203077,106.907382,127.190661)">
<stop offset="0" style="stop-color:rgb(0%,0%,0%);stop-opacity:0.313726;"/>
<stop offset="0.222222" style="stop-color:rgb(0%,0%,0%);stop-opacity:0.27451;"/>
<stop offset="1" style="stop-color:rgb(0%,0%,0%);stop-opacity:0;"/>
</radialGradient>
<radialGradient id="radial1" gradientUnits="userSpaceOnUse" cx="450.908936" cy="189.579361" fx="450.908936" fy="189.579361" r="21.166656" gradientTransform="matrix(-0.000000348341,0.156265,0.281277,0.000000203077,-43.401323,-15.054962)">
<stop offset="0" style="stop-color:rgb(0%,0%,0%);stop-opacity:0.313726;"/>
<stop offset="0.222222" style="stop-color:rgb(0%,0%,0%);stop-opacity:0.27451;"/>
<stop offset="1" style="stop-color:rgb(0%,0%,0%);stop-opacity:0;"/>
</radialGradient>
<radialGradient id="radial2" gradientUnits="userSpaceOnUse" cx="450.908936" cy="189.579361" fx="450.908936" fy="189.579361" r="21.166656" gradientTransform="matrix(-0.000000348341,-0.156265,0.281277,-0.000000203077,-43.401323,127.190661)">
<stop offset="0" style="stop-color:rgb(0%,0%,0%);stop-opacity:0.313726;"/>
<stop offset="0.222222" style="stop-color:rgb(0%,0%,0%);stop-opacity:0.27451;"/>
<stop offset="1" style="stop-color:rgb(0%,0%,0%);stop-opacity:0;"/>
</radialGradient>
<radialGradient id="radial3" gradientUnits="userSpaceOnUse" cx="450.908936" cy="189.579361" fx="450.908936" fy="189.579361" r="21.166656" gradientTransform="matrix(0.000000348341,0.156265,-0.281277,0.000000203077,106.907378,-15.054963)">
<stop offset="0" style="stop-color:rgb(0%,0%,0%);stop-opacity:0.313726;"/>
<stop offset="0.222222" style="stop-color:rgb(0%,0%,0%);stop-opacity:0.27451;"/>
<stop offset="1" style="stop-color:rgb(0%,0%,0%);stop-opacity:0;"/>
</radialGradient>
<linearGradient id="linear1" gradientUnits="userSpaceOnUse" x1="306.916656" y1="-25.791676" x2="305.954559" y2="-135.329163" gradientTransform="matrix(0.150699,0,0,0.434824,-11.708026,67.282696)">
<stop offset="0" style="stop-color:rgb(25.882354%,25.882354%,25.882354%);stop-opacity:1;"/>
<stop offset="1" style="stop-color:rgb(38.039216%,38.039216%,38.039216%);stop-opacity:1;"/>
</linearGradient>
<linearGradient id="linear2" gradientUnits="userSpaceOnUse" x1="306.916656" y1="-25.791676" x2="305.954559" y2="-135.329163" gradientTransform="matrix(0.150699,0,0,0.434824,-11.708026,67.282692)">
<stop offset="0" style="stop-color:rgb(74.117649%,74.117649%,74.117649%);stop-opacity:1;"/>
<stop offset="1" style="stop-color:rgb(87.843138%,87.843138%,87.843138%);stop-opacity:1;"/>
</linearGradient>
<linearGradient id="linear3" gradientUnits="userSpaceOnUse" x1="306.916656" y1="-25.791676" x2="305.954559" y2="-135.329163" gradientTransform="matrix(0.150699,0,0,0.434824,-11.708026,67.282692)">
<stop offset="0" style="stop-color:rgb(74.117649%,74.117649%,74.117649%);stop-opacity:1;"/>
<stop offset="1" style="stop-color:rgb(87.843138%,87.843138%,87.843138%);stop-opacity:1;"/>
</linearGradient>
<linearGradient id="linear4" gradientUnits="userSpaceOnUse" x1="306.916656" y1="-25.791676" x2="305.954559" y2="-135.329163" gradientTransform="matrix(0.150699,0,0,0.434824,-11.708026,67.282692)">
<stop offset="0" style="stop-color:rgb(25.882354%,25.882354%,25.882354%);stop-opacity:1;"/>
<stop offset="1" style="stop-color:rgb(38.039216%,38.039216%,38.039216%);stop-opacity:1;"/>
</linearGradient>
<linearGradient id="linear5" gradientUnits="userSpaceOnUse" x1="349.25" y1="-158.083328" x2="349.25" y2="-115.75" gradientTransform="matrix(0.749999,0,0,0.749999,71.437767,-2.479259)">
<stop offset="0" style="stop-color:rgb(40.000001%,73.333335%,41.568628%);stop-opacity:1;"/>
<stop offset="1" style="stop-color:rgb(50.588238%,78.039217%,51.764709%);stop-opacity:1;"/>
</linearGradient>
<linearGradient id="linear6" gradientUnits="userSpaceOnUse" x1="349.25" y1="-158.083328" x2="349.25" y2="-115.75" gradientTransform="matrix(0.750001,0,0,0.750001,124.353661,-2.47902)">
<stop offset="0" style="stop-color:rgb(100%,83.529413%,30.980393%);stop-opacity:1;"/>
<stop offset="1" style="stop-color:rgb(100%,87.843138%,50.980395%);stop-opacity:1;"/>
</linearGradient>
<linearGradient id="linear7" gradientUnits="userSpaceOnUse" x1="349.25" y1="-158.083328" x2="349.25" y2="-115.75" gradientTransform="matrix(0.75,0,0,0.75,177.270798,-2.479186)">
<stop offset="0" style="stop-color:rgb(89.803922%,45.09804%,45.09804%);stop-opacity:1;"/>
<stop offset="1" style="stop-color:rgb(93.725491%,60.392159%,60.392159%);stop-opacity:1;"/>
</linearGradient>
</defs>
<g id="surface1">
<path style=" stroke:none;fill-rule:nonzero;fill:url(#linear0);" d="M 9.261719 56.066406 L 54.246094 56.066406 L 54.246094 58.714844 L 9.261719 58.714844 Z M 9.261719 56.066406 "/>
<path style=" stroke:none;fill-rule:nonzero;fill:url(#radial0);" d="M 54.246094 56.066406 L 59.535156 56.066406 L 59.535156 53.421875 L 54.246094 53.421875 Z M 54.246094 56.066406 "/>
<path style=" stroke:none;fill-rule:nonzero;fill:url(#radial1);" d="M 9.261719 56.066406 L 3.96875 56.066406 L 3.96875 58.714844 L 9.261719 58.714844 Z M 9.261719 56.066406 "/>
<path style=" stroke:none;fill-rule:nonzero;fill:url(#radial2);" d="M 9.261719 56.066406 L 3.96875 56.066406 L 3.96875 53.421875 L 9.261719 53.421875 Z M 9.261719 56.066406 "/>
<path style=" stroke:none;fill-rule:nonzero;fill:url(#radial3);" d="M 54.246094 56.066406 L 59.535156 56.066406 L 59.535156 58.714844 L 54.246094 58.714844 Z M 54.246094 56.066406 "/>
<path style=" stroke:none;fill-rule:nonzero;fill:url(#linear1);" d="M 6.613281 8.4375 L 56.890625 8.4375 C 58.351562 8.4375 59.535156 9.621094 59.535156 11.085938 L 59.535156 53.421875 C 59.535156 54.882812 58.351562 56.066406 56.890625 56.066406 L 6.613281 56.066406 C 5.152344 56.066406 3.96875 54.882812 3.96875 53.421875 L 3.96875 11.085938 C 3.96875 9.621094 5.152344 8.4375 6.613281 8.4375 Z M 6.613281 8.4375 "/>
<path style=" stroke:none;fill-rule:nonzero;fill:url(#linear2);" d="M 31.753906 8.4375 L 31.753906 56.066406 L 56.890625 56.066406 C 58.355469 56.066406 59.535156 54.886719 59.535156 53.421875 L 59.535156 11.085938 C 59.535156 9.617188 58.355469 8.4375 56.890625 8.4375 Z M 31.753906 8.4375 "/>
<path style=" stroke:none;fill-rule:nonzero;fill:rgb(3.921569%,5.098039%,5.490196%);fill-opacity:0.235294;" d="M 3.96875 19.023438 L 59.535156 19.023438 L 59.535156 20.34375 L 3.96875 20.34375 Z M 3.96875 19.023438 "/>
<path style=" stroke:none;fill-rule:nonzero;fill:url(#linear3);" d="M 6.613281 8.4375 C 5.148438 8.4375 3.96875 9.617188 3.96875 11.085938 L 3.96875 19.023438 L 59.535156 19.023438 L 59.535156 11.085938 C 59.535156 9.617188 58.355469 8.4375 56.890625 8.4375 Z M 6.613281 8.4375 "/>
<path style=" stroke:none;fill-rule:nonzero;fill:rgb(0%,0%,0%);fill-opacity:0.235294;" d="M 6.613281 56.09375 C 5.148438 56.09375 3.96875 54.914062 3.96875 53.449219 L 3.96875 52.761719 C 3.96875 54.226562 5.148438 55.40625 6.613281 55.40625 L 56.890625 55.40625 C 58.355469 55.40625 59.535156 54.226562 59.535156 52.761719 L 59.535156 53.449219 C 59.535156 54.914062 58.355469 56.09375 56.890625 56.09375 Z M 6.613281 56.09375 "/>
<path style=" stroke:none;fill-rule:nonzero;fill:url(#linear4);" d="M 31.753906 8.4375 L 31.753906 19.023438 L 59.535156 19.023438 L 59.535156 11.085938 C 59.535156 9.617188 58.355469 8.4375 56.890625 8.4375 Z M 31.753906 8.4375 "/>
<path style=" stroke:none;fill-rule:nonzero;fill:rgb(100%,100%,100%);fill-opacity:0.392157;" d="M 6.613281 8.589844 C 5.148438 8.589844 3.96875 9.769531 3.96875 11.238281 L 3.96875 11.925781 C 3.96875 10.457031 5.148438 9.277344 6.613281 9.277344 L 56.890625 9.277344 C 58.355469 9.277344 59.535156 10.457031 59.535156 11.925781 L 59.535156 11.238281 C 59.535156 9.769531 58.355469 8.589844 56.890625 8.589844 Z M 6.613281 8.589844 "/>
<path style=" stroke:none;fill-rule:nonzero;fill:rgb(12.941177%,12.941177%,12.941177%);fill-opacity:1;" d="M 6.613281 8.25 C 5.046875 8.25 3.78125 9.519531 3.78125 11.085938 L 3.78125 53.421875 C 3.78125 54.988281 5.046875 56.253906 6.613281 56.253906 L 56.890625 56.253906 C 58.457031 56.253906 59.722656 54.988281 59.722656 53.421875 L 59.722656 11.085938 C 59.722656 9.519531 58.457031 8.25 56.890625 8.25 Z M 6.613281 8.625 L 56.890625 8.625 C 58.257812 8.625 59.347656 9.71875 59.347656 11.085938 L 59.347656 53.421875 C 59.347656 54.789062 58.257812 55.878906 56.890625 55.878906 L 6.613281 55.878906 C 5.25 55.878906 4.15625 54.789062 4.15625 53.421875 L 4.15625 11.085938 C 4.15625 9.71875 5.25 8.625 6.613281 8.625 Z M 6.613281 8.625 "/>
<path style="fill-rule:nonzero;fill:url(#linear5);stroke-width:3;stroke-linecap:round;stroke-linejoin:miter;stroke:rgb(12.941177%,12.941177%,12.941177%);stroke-opacity:1;stroke-miterlimit:4;" d="M 333.374414 -121.040223 C 342.154826 -121.040223 349.247898 -113.94715 349.247898 -105.166739 C 349.247898 -96.386327 342.154826 -89.293254 333.374414 -89.293254 C 324.594003 -89.293254 317.50093 -96.386327 317.50093 -105.166739 C 317.50093 -113.94715 324.594003 -121.040223 333.374414 -121.040223 Z M 333.374414 -121.040223 " transform="matrix(0.125012,0,0,0.125012,0,26.877566)"/>
<path style="fill-rule:nonzero;fill:url(#linear6);stroke-width:3;stroke-linecap:round;stroke-linejoin:miter;stroke:rgb(12.941177%,12.941177%,12.941177%);stroke-opacity:1;stroke-miterlimit:4;" d="M 386.30686 -121.040223 C 395.056024 -121.040223 402.180344 -113.94715 402.180344 -105.166739 C 402.180344 -96.386327 395.056024 -89.293254 386.30686 -89.293254 C 377.526448 -89.293254 370.402128 -96.386327 370.402128 -105.166739 C 370.402128 -113.94715 377.526448 -121.040223 386.30686 -121.040223 Z M 386.30686 -121.040223 " transform="matrix(0.125012,0,0,0.125012,0,26.877566)"/>
<path style="fill-rule:nonzero;fill:url(#linear7);stroke-width:3;stroke-linecap:round;stroke-linejoin:miter;stroke:rgb(12.941177%,12.941177%,12.941177%);stroke-opacity:1;stroke-miterlimit:4;" d="M 439.208058 -121.040223 C 447.988469 -121.040223 455.081542 -113.94715 455.081542 -105.166739 C 455.081542 -96.386327 447.988469 -89.293254 439.208058 -89.293254 C 430.427646 -89.293254 423.334574 -96.386327 423.334574 -105.166739 C 423.334574 -113.94715 430.427646 -121.040223 439.208058 -121.040223 Z M 439.208058 -121.040223 " transform="matrix(0.125012,0,0,0.125012,0,26.877566)"/>
<path style=" stroke:none;fill-rule:nonzero;fill:rgb(100%,100%,100%);fill-opacity:1;" d="M 6.613281 8.589844 C 5.148438 8.589844 3.96875 9.769531 3.96875 11.238281 L 3.96875 11.925781 C 3.96875 10.457031 5.148438 9.277344 6.613281 9.277344 L 31.753906 9.277344 L 31.753906 8.589844 Z M 6.613281 8.589844 "/>
<path style="fill:none;stroke-width:3;stroke-linecap:butt;stroke-linejoin:miter;stroke:rgb(12.941177%,12.941177%,12.941177%);stroke-opacity:1;stroke-miterlimit:4;" d="M 254.006994 233.488421 L 254.006994 -147.506445 " transform="matrix(0.125012,0,0,0.125012,0,26.877566)"/>
<path style="fill:none;stroke-width:3;stroke-linecap:butt;stroke-linejoin:miter;stroke:rgb(12.941177%,12.941177%,12.941177%);stroke-opacity:1;stroke-miterlimit:4;" d="M 31.746968 -62.827032 L 476.235772 -62.827032 " transform="matrix(0.125012,0,0,0.125012,0,26.877566)"/>
</g>
</svg>
